X:58
T:Fingers Crossed
R:jig
C:Paul S. Cranford
O:Cape Breton Island
S:http://www.cranfordpub.com
D:currently unrecorded
B:currently unpublished in book form
Z:psc, (re-formatted,updated 9/17/04)
N:
H:                                                        copyrights Cranford Publications, SOCAN
L:1/8
Q:333
M:6/8
K:D
e|fed B2 A|fed g2 b|aAa fed|faf efg|
fed B2 A|fed g2 b|aAa fed|eAc d2:|
|:f|gBb g2 e|aba fed|eAe efg|ada fed|
gBb g2 e|aba fed|eAe efg|eAc d2:|
